assets/img/features-3.svg

<svg id="ae5f5559-570c-4c14-9324-22f1786600a2" data-name="Layer 1" xmlns="http://www.w3.org/2000/svg" width="1015.12774" height="526" viewBox="0 0 1015.12774 526"><title>static_website</title><rect x="600.64726" y="143.87206" width="300.3462" height="532.4319" transform="translate(59.46229 833.98563) rotate(-74.20991)" fill="#3f3d56"/><circle cx="451.92875" cy="18.22867" r="4.24322" fill="#fdc134"/><circle cx="464.99468" cy="21.92352" r="4.24322" fill="#fdc134"/><circle cx="478.06061" cy="25.61836" r="4.24322" fill="#fdc134"/><path d="M807.41965,376.52959a49.57145,49.57145,0,0,0-20.70373.48865,49.483,49.483,0,0,0,1.46357-20.91986,49.19363,49.19363,0,0,0-18.50638,11.94255,49.193,49.193,0,0,0-9.51152-19.86558,49.48244,49.48244,0,0,0-9.70867,18.58827A49.57169,49.57169,0,0,0,733.07115,355.505s-3.09015,15.716,4.34937,28.61187c6.62151,11.47786,19.34349,16.84908,22.06311,17.8924l.06371.07642.03418-.03883c.276.10469.43054.15809.43054.15809s.05845-.30187.139-.84058c.04889-.0604.09834-.12183.15239-.18961.01056.086.02049.16416.03051.24122-.21353.50116-.32189.789-.32189.789s.15966.0354.44964.09076l.00877.051.09429-.03174c2.8634.53547,16.51408,2.622,28.16579-3.68844C801.82182,391.5365,807.41965,376.52959,807.41965,376.52959Z" transform="translate(-92.43613 -187)" fill="#fdc134"/><circle cx="689.59221" cy="138.35165" r="11.03237" fill="#fdc134"/><rect x="581.48421" y="421.57144" width="344.54948" height="7.4962" transform="translate(51.74221 -376.0588) rotate(15.79009)" fill="#fdc134"/><rect x="600.67236" y="426.50275" width="59.40508" height="59.40508" transform="translate(55.49076 -341.31883) rotate(15.79009)" fill="#fdc134"/><rect x="706.83303" y="456.52336" width="59.40508" height="59.40508" transform="translate(67.66575 -369.07379) rotate(15.79009)" fill="#fdc134"/><rect x="812.9937" y="486.54396" width="59.40508" height="59.40508" transform="translate(79.84073 -396.82874) rotate(15.79009)" fill="#fdc134"/><rect x="596.30192" y="496.12363" width="44.12949" height="5.09186" transform="translate(66.59275 -336.44884) rotate(15.79009)" fill="#fdc134"/><rect x="702.46259" y="526.14423" width="44.12949" height="5.09186" transform="translate(78.76773 -364.20379) rotate(15.79009)" fill="#fdc134"/><rect x="808.62326" y="556.16484" width="44.12949" height="5.09186" transform="translate(90.94272 -391.95875) rotate(15.79009)" fill="#fdc134"/><ellipse cx="289.60018" cy="396.5" rx="284" ry="10.5" fill="#d0cde1"/><ellipse cx="794.12774" cy="515.5" rx="221" ry="10.5" fill="#d0cde1"/><path d="M778.1721,621H841.93v26.66361H804.83571v26.6636h37.09761v26.662H778.1721Zm76.51116,0h63.75958v23.1856h-37.096v4.63679h37.096v53.32722H854.68491V677.80192h37.096v-4.63679H854.68161V621Zm76.51281,0h63.75958v23.1856h-37.096v4.63679h37.096v53.32722H931.19607V677.80192h37.096v-4.63679H931.19773V621Z" transform="translate(-92.43613 -187)" fill="#3f3d56"/><path d="M220.92612,499h26.30227v25.98626h24.061V499h26.30389v78.69291H271.291V551.342H247.23v26.3509H220.92774V499Zm111.25393,26.09646H309.02821V499h72.6254v26.09646H358.48719v52.59645H332.18492V525.09646h-.00487ZM393.17929,499h27.42535l16.87042,27.65061L454.32925,499h27.43668v78.69291H455.57061V538.6884L437.475,566.668h-.45376L418.91436,538.6884v39.00451H393.17929Zm101.67621,0h26.31038v52.68234h36.9885v26.01057H494.85389V499Z" transform="translate(-92.43613 -187)" fill="#3f3d56"/><polygon points="82.034 366.091 79.876 390.558 97.146 389.118 97.146 368.25 82.034 366.091" fill="#ffb8b8"/><polygon points="66.203 366.091 68.362 390.558 51.092 389.118 51.092 368.25 66.203 366.091" fill="#ffb8b8"/><path d="M203.9741,365.27567s5.7568,34.54079,5.7568,39.578-2.1588,37.41919-5.7568,43.89559-4.3176,9.3548-2.8784,12.2332.7196,2.15879,0,4.31759-2.1588,1.4392,0,4.3176a7.56062,7.56062,0,0,1,0,8.6352c-1.4392,2.1588,2.8784,60.44639-2.8784,64.764s-7.196,18.70959-7.196,18.70959l-18.70959-2.1588v-15.8312s-4.3176-11.51359-1.4392-18.70959,4.3176-45.33479,4.3176-45.33479-.7196-3.598,0-5.7568,0-3.598-1.4392-4.3176-2.1588-3.598-2.1588-3.598l-2.1588-52.53078L160.79811,465.3s8.6352,70.52079,0,79.87558v16.5508H142.08852l2.8784-17.99s-5.7568-16.55079-2.8784-20.14879-8.6352-61.166-7.196-63.32478.7196-2.8784,0-4.3176-2.8784-2.8784-2.1588-4.3176,0-4.3176,0-4.3176-13.6724-67.64238-7.196-74.11878S203.9741,365.27567,203.9741,365.27567Z" transform="translate(-92.43613 -187)" fill="#2f2e41"/><path d="M176.62931,568.20282s1.4392-6.90136,12.9528-4.53008c0,0,2.87839,5.96928,2.87839,8.84768s2.8784,22.30759,2.8784,22.30759,11.5136,19.4292-2.8784,19.4292-19.42919-5.0372-20.14879-10.0744.7196-6.4764-2.1588-8.6352-4.3176-2.1588-3.598-5.0372,2.1588-17.27039,2.1588-17.27039.7196-10.794,4.6774-7.9156l3.9578,2.8784" transform="translate(-92.43613 -187)" fill="#2f2e41"/><path d="M156.48051,568.20282s-1.4392-6.90136-12.95279-4.53008c0,0-2.8784,5.96928-2.8784,8.84768s-2.8784,22.30759-2.8784,22.30759-11.5136,19.4292,2.8784,19.4292,19.42919-5.0372,20.14879-10.0744-.7196-6.4764,2.1588-8.6352,4.3176-2.1588,3.598-5.0372-2.1588-17.27039-2.1588-17.27039-.7196-10.794-4.6774-7.9156l-3.9578,2.8784" transform="translate(-92.43613 -187)" fill="#2f2e41"/><circle cx="84.91278" cy="26.44011" r="19.4292" fill="#ffb8b8"/><path d="M161.51771,216.31851s-7.9156,30.94279-9.3548,31.66239,33.1016,3.598,33.1016,3.598-8.6352-26.6252,0-30.94279Z" transform="translate(-92.43613 -187)" fill="#ffb8b8"/><path d="M156.46253,235.17488l-.00093-.004L132.73372,251.5789l4.3176,128.80837s31.66239-3.598,38.85839-2.8784,30.22319-6.4764,30.22319-6.4764L196.04659,249.9967a9.94192,9.94192,0,0,0-9.20821-9.09165l-4.32176-.30476s-4.31728,10.68931-17.30682,5.17465A15.15623,15.15623,0,0,1,156.46253,235.17488Z" transform="translate(-92.43613 -187)" fill="#d0cde1"/><path d="M157.03631,234l-29.33979,13.9809-5.7568,82.754s-11.5136,49.65239-2.1588,64.04438,25.186,15.8312,25.186,15.8312,20.86839-82.754,15.11159-110.81837S157.03631,234,157.03631,234Z" transform="translate(-92.43613 -187)" fill="#575a89"/><path d="M101.79093,358.79927v10.794s-4.3176,23.74679,9.35479,23.02719,7.196-25.90559,7.196-25.90559l-4.3176-7.9156Z" transform="translate(-92.43613 -187)" fill="#ffb8b8"/><path d="M228.4405,380.38727l-1.4392,12.23319s7.196,24.4664-6.4764,25.186-3.748-25.03584-3.748-25.03584l4.46756-13.82255Z" transform="translate(-92.43613 -187)" fill="#ffb8b8"/><path d="M182.08361,238.08539h0a84.74684,84.74684,0,0,1,35.43844,18.42216l.12443.10854-10.0744,53.25038-1.4392,19.4292s26.62519,94.98717-4.3176,81.31478c0,0-26.62519-82.754-23.02719-120.89277S182.08361,238.08539,182.08361,238.08539Z" transform="translate(-92.43613 -187)" fill="#575a89"/><path d="M208.2917,255.8965c.7196-.7196,9.3548,1,9.3548,1s15.83119,55.84838,15.83119,65.20318,2.1588,62.60518,2.1588,62.60518l-18.99514,1.91474-15.37506-73.98644Z" transform="translate(-92.43613 -187)" fill="#575a89"/><path d="M132.73372,247.9809h-5.0372s-14.392,5.7568-15.1116,12.2332-20.14879,71.96-20.14879,71.96l5.0372,33.10159,18.70959-2.8784,3.598-36.69959,18.7096-40.29759Z" transform="translate(-92.43613 -187)" fill="#575a89"/><path d="M173.57432,218.8626l.74492-5.19289c.17362-1.21036.882-2.8018,2.05958-2.47264,1.00159.28,3.18376,1.13738,3.5491.87857,1.3682-.96923,3.43868.72552,4.87744-.13549.6028-.36073.996-1.13357,1.69662-1.18516a1.9326,1.9326,0,0,1,1.24551.56426,8.47721,8.47721,0,0,0,3.22412,1.75148,3.468,3.468,0,0,0,3.39423-.92517,1.80257,1.80257,0,0,1,.60022-.57537,1.34659,1.34659,0,0,1,.86308.03969l3.67611,1.00088a14.12556,14.12556,0,0,0-1.88988-11.62984,23.39121,23.39121,0,0,0-5.35422-5.24365q-3.41485-2.59788-7.04825-4.887a22.89209,22.89209,0,0,0-8.563-3.72539c-3.1-.47075-6.57114.37147-8.52107,2.827a5.48684,5.48684,0,0,1-1.97362-2.66617,2.01963,2.01963,0,0,0,.1303,3.09667l-3.109-1.98535c-.874.91767.83358,2.5817.08892,3.60711a1.89976,1.89976,0,0,1-.837.54649,14.25211,14.25211,0,0,0-4.55865,2.86924,17.01032,17.01032,0,0,0-3.59023,6.61357c-1.85261,5.31494-3.19909,11.41016-.56689,16.38533.29841.564,4.23741,9.87353,4.76219,10.23655,1.774,1.22715.61919-1.74269,1.89034,0,.9968,1.36657.81021-3.86379,2.29164-2.71572a3.693,3.693,0,0,0,4.01967.18077c.61419-.42594.41628-2.79122.08489-4.96329a2.55893,2.55893,0,0,1,3.11332-2.87895C171.7198,218.71218,173.5427,219.08306,173.57432,218.8626Z" transform="translate(-92.43613 -187)" fill="#2f2e41"/><polygon points="117.655 134.02 125.57 199.504 120.533 199.504 117.655 134.02" opacity="0.2"/><polygon points="34.181 108.834 30.179 134.02 37.779 108.834 35.62 108.834 34.181 108.834" opacity="0.2"/></svg>

<?xml version="1.0" encoding="UTF-8" standalone="no"?>
<!DOCTYPE svg PUBLIC "-//W3C//DTD SVG 1.1//EN" "http://www.w3.org/Graphics/SVG/1.1/DTD/svg11.dtd">
<svg width="100%" height="100%" viewBox="0 0 1016 526" version="1.1" xmlns="http://www.w3.org/2000/svg" xmlns:xlink="http://www.w3.org/1999/xlink" xml:space="preserve" xmlns:serif="http://www.serif.com/" style="fill-rule:evenodd;clip-rule:evenodd;stroke-linejoin:round;stroke-miterlimit:2;">
    <g transform="matrix(0.272114,-0.962265,0.962265,0.272114,59.4623,833.986)">
        <rect x="600.647" y="143.872" width="300.346" height="532.432" style="fill:rgb(63,61,86);"/>
    </g>
    <circle cx="451.929" cy="18.229" r="4.243" style="fill:rgb(53,173,224);"/>
    <circle cx="464.995" cy="21.924" r="4.243" style="fill:rgb(53,173,224);"/>
    <circle cx="478.061" cy="25.618" r="4.243" style="fill:rgb(53,173,224);"/>
    <g transform="matrix(1,0,0,1,-92.4361,-187)">
        <path d="M807.42,376.53C800.561,375.233 793.506,375.4 786.716,377.018C788.693,370.23 789.192,363.096 788.179,356.098C781.188,358.629 774.86,362.713 769.673,368.041C768.045,360.786 764.793,353.993 760.162,348.175C755.635,353.606 752.324,359.945 750.453,366.764C745.516,361.829 739.593,357.992 733.071,355.505C726.549,353.018 729.981,371.221 737.421,384.117C744.042,395.595 756.764,400.966 759.484,402.009L759.547,402.086L759.582,402.047C759.858,402.152 760.012,402.205 760.012,402.205C760.012,402.205 760.071,401.903 760.151,401.364C760.2,401.304 760.249,401.243 760.303,401.175C760.314,401.261 760.324,401.339 760.334,401.416C760.12,401.917 760.012,402.205 760.012,402.205C760.012,402.205 760.172,402.24 760.462,402.296L760.47,402.347L760.565,402.315C763.428,402.85 777.079,404.937 788.731,398.627C801.822,391.537 807.42,376.53 807.42,376.53Z" style="fill:rgb(53,173,224);fill-rule:nonzero;"/>
    </g>
    <circle cx="689.592" cy="138.352" r="11.032" style="fill:rgb(53,173,224);"/>
    <g transform="matrix(0.962265,0.272114,-0.272114,0.962265,51.7422,-376.059)">
        <rect x="581.484" y="421.571" width="344.549" height="7.496" style="fill:rgb(53,173,224);"/>
    </g>
    <g transform="matrix(0.962265,0.272114,-0.272114,0.962265,55.4908,-341.319)">
        <rect x="600.672" y="426.503" width="59.405" height="59.405" style="fill:rgb(53,173,224);"/>
    </g>
    <g transform="matrix(0.962265,0.272114,-0.272114,0.962265,67.6658,-369.074)">
        <rect x="706.833" y="456.523" width="59.405" height="59.405" style="fill:rgb(53,173,224);"/>
    </g>
    <g transform="matrix(0.962265,0.272114,-0.272114,0.962265,79.8407,-396.829)">
        <rect x="812.994" y="486.544" width="59.405" height="59.405" style="fill:rgb(53,173,224);"/>
    </g>
    <g transform="matrix(0.962265,0.272114,-0.272114,0.962265,66.5927,-336.449)">
        <rect x="596.302" y="496.124" width="44.129" height="5.092" style="fill:rgb(53,173,224);"/>
    </g>
    <g transform="matrix(0.962265,0.272114,-0.272114,0.962265,78.7677,-364.204)">
        <rect x="702.463" y="526.144" width="44.129" height="5.092" style="fill:rgb(53,173,224);"/>
    </g>
    <g transform="matrix(0.962265,0.272114,-0.272114,0.962265,90.9427,-391.959)">
        <rect x="808.623" y="556.165" width="44.129" height="5.092" style="fill:rgb(53,173,224);"/>
    </g>
    <ellipse cx="289.6" cy="396.5" rx="284" ry="10.5" style="fill:rgb(208,205,225);"/>
    <ellipse cx="794.128" cy="515.5" rx="221" ry="10.5" style="fill:rgb(208,205,225);"/>
    <g transform="matrix(1,0,0,1,-92.4361,-187)">
        <path d="M778.172,621L841.93,621L841.93,647.664L804.836,647.664L804.836,674.327L841.933,674.327L841.933,700.989L778.172,700.989L778.172,621ZM854.682,621L918.443,621L918.443,644.186L881.347,644.186L881.347,648.822L918.443,648.822L918.443,702.15L854.685,702.15L854.685,677.802L891.781,677.802L891.781,673.165L854.682,673.165L854.682,621ZM931.196,621L994.956,621L994.956,644.186L957.86,644.186L957.86,648.822L994.956,648.822L994.956,702.15L931.196,702.15L931.196,677.802L968.292,677.802L968.292,673.165L931.198,673.165L931.198,621L931.196,621Z" style="fill:rgb(63,61,86);fill-rule:nonzero;"/>
    </g>
    <g transform="matrix(1,0,0,1,-92.4361,-187)">
        <path d="M220.926,499L247.228,499L247.228,524.986L271.289,524.986L271.289,499L297.593,499L297.593,577.693L271.291,577.693L271.291,551.342L247.23,551.342L247.23,577.693L220.928,577.693L220.928,499L220.926,499ZM332.185,525.096L309.028,525.096L309.028,499L381.654,499L381.654,525.096L358.487,525.096L358.487,577.693L332.185,577.693L332.185,525.096ZM393.179,499L420.605,499L437.475,526.651L454.329,499L481.766,499L481.766,577.693L455.571,577.693L455.571,538.688L437.475,566.668L437.021,566.668L418.914,538.688L418.914,577.693L393.179,577.693L393.179,499ZM494.854,499L521.166,499L521.166,551.682L558.154,551.682L558.154,577.693L494.854,577.693L494.854,499Z" style="fill:rgb(63,61,86);fill-rule:nonzero;"/>
    </g>
    <path d="M82.034,366.091L79.876,390.558L97.146,389.118L97.146,368.25L82.034,366.091Z" style="fill:rgb(255,184,184);fill-rule:nonzero;"/>
    <path d="M66.203,366.091L68.362,390.558L51.092,389.118L51.092,368.25L66.203,366.091Z" style="fill:rgb(255,184,184);fill-rule:nonzero;"/>
    <g transform="matrix(1,0,0,1,-92.4361,-187)">
        <path d="M203.974,365.276C203.974,365.276 209.731,399.816 209.731,404.854C209.731,409.891 207.572,442.273 203.974,448.749C200.376,455.226 199.657,458.104 201.096,460.982C202.535,463.861 201.815,463.141 201.096,465.3C200.376,467.459 198.937,466.739 201.096,469.618C202.897,472.207 202.897,475.664 201.096,478.253C199.657,480.412 203.974,538.699 198.217,543.017C192.461,547.334 191.021,561.726 191.021,561.726L172.312,559.568L172.312,543.736C172.312,543.736 167.994,532.223 170.873,525.027C173.751,517.831 175.19,479.692 175.19,479.692C175.19,479.692 174.471,476.094 175.19,473.935C175.91,471.776 175.19,470.337 173.751,469.618C172.312,468.898 171.592,466.02 171.592,466.02L169.433,413.489L160.798,465.3C160.798,465.3 169.433,535.821 160.798,545.176L160.798,561.726L142.089,561.726L144.967,543.736C144.967,543.736 139.21,527.186 142.089,523.588C144.967,519.99 133.453,462.422 134.893,460.263C136.332,458.104 135.612,457.384 134.893,455.945C134.173,454.506 132.014,453.067 132.734,451.628C133.453,450.188 132.734,447.31 132.734,447.31C132.734,447.31 119.061,379.668 125.538,373.191C132.014,366.715 203.974,365.276 203.974,365.276Z" style="fill:rgb(47,46,65);fill-rule:nonzero;"/>
    </g>
    <g transform="matrix(1,0,0,1,-92.4361,-187)">
        <path d="M176.629,568.203C176.629,568.203 178.069,561.301 189.582,563.673C189.582,563.673 192.461,569.642 192.461,572.52C192.461,575.399 195.339,594.828 195.339,594.828C195.339,594.828 206.853,614.257 192.461,614.257C178.069,614.257 173.031,609.22 172.312,604.183C171.592,599.146 173.031,597.706 170.153,595.548C167.275,593.389 165.835,593.389 166.555,590.51C167.275,587.632 168.714,573.24 168.714,573.24C168.714,573.24 169.433,562.446 173.391,565.324L177.349,568.203" style="fill:rgb(47,46,65);fill-rule:nonzero;"/>
    </g>
    <g transform="matrix(1,0,0,1,-92.4361,-187)">
        <path d="M156.481,568.203C156.481,568.203 155.041,561.301 143.528,563.673C143.528,563.673 140.649,569.642 140.649,572.52C140.649,575.399 137.771,594.828 137.771,594.828C137.771,594.828 126.257,614.257 140.649,614.257C155.041,614.257 160.079,609.22 160.798,604.183C161.518,599.146 160.079,597.706 162.957,595.548C165.835,593.389 167.275,593.389 166.555,590.51C165.835,587.632 164.396,573.24 164.396,573.24C164.396,573.24 163.677,562.446 159.719,565.324L155.761,568.203" style="fill:rgb(47,46,65);fill-rule:nonzero;"/>
    </g>
    <circle cx="84.913" cy="26.44" r="19.429" style="fill:rgb(255,184,184);"/>
    <g transform="matrix(1,0,0,1,-92.4361,-187)">
        <path d="M161.518,216.319C161.518,216.319 153.602,247.261 152.163,247.981C150.724,248.7 185.265,251.579 185.265,251.579C185.265,251.579 176.629,224.954 185.265,220.636L161.518,216.319Z" style="fill:rgb(255,184,184);fill-rule:nonzero;"/>
    </g>
    <g transform="matrix(1,0,0,1,-92.4361,-187)">
        <path d="M156.463,235.175L156.462,235.171L132.734,251.579L137.051,380.387C137.051,380.387 168.714,376.789 175.91,377.509C183.106,378.228 206.133,371.032 206.133,371.032L196.047,249.997C195.641,245.131 191.709,241.248 186.838,240.905L182.517,240.6C182.517,240.6 178.199,251.29 165.21,245.775C160.771,243.844 157.516,239.899 156.463,235.175Z" style="fill:rgb(208,205,225);fill-rule:nonzero;"/>
    </g>
    <g transform="matrix(1,0,0,1,-92.4361,-187)">
        <path d="M157.036,234L127.697,247.981L121.94,330.735C121.94,330.735 110.426,380.387 119.781,394.779C129.136,409.171 144.967,410.61 144.967,410.61C144.967,410.61 165.835,327.856 160.079,299.792C154.322,271.728 157.036,234 157.036,234Z" style="fill:rgb(87,90,137);fill-rule:nonzero;"/>
    </g>
    <g transform="matrix(1,0,0,1,-92.4361,-187)">
        <path d="M101.791,358.799L101.791,369.593C101.791,369.593 97.473,393.34 111.146,392.62C124.818,391.901 118.342,366.715 118.342,366.715L114.024,358.799L101.791,358.799Z" style="fill:rgb(255,184,184);fill-rule:nonzero;"/>
    </g>
    <g transform="matrix(1,0,0,1,-92.4361,-187)">
        <path d="M228.44,380.387L227.001,392.62C227.001,392.62 234.197,417.087 220.525,417.806C206.852,418.526 216.777,392.771 216.777,392.771L221.244,378.948L228.44,380.387Z" style="fill:rgb(255,184,184);fill-rule:nonzero;"/>
    </g>
    <g transform="matrix(1,0,0,1,-92.4361,-187)">
        <path d="M182.084,238.085C195.195,241.315 207.346,247.632 217.522,256.508L217.646,256.616L207.572,309.866L206.133,329.296C206.133,329.296 232.758,424.283 201.815,410.61C201.815,410.61 175.19,327.856 178.788,289.718C182.386,251.579 182.084,238.085 182.084,238.085Z" style="fill:rgb(87,90,137);fill-rule:nonzero;"/>
    </g>
    <g transform="matrix(1,0,0,1,-92.4361,-187)">
        <path d="M208.292,255.897C209.011,255.177 217.647,256.897 217.647,256.897C217.647,256.897 233.478,312.745 233.478,322.1C233.478,331.454 235.636,384.705 235.636,384.705L216.641,386.62L201.266,312.633L208.292,255.897Z" style="fill:rgb(87,90,137);fill-rule:nonzero;"/>
    </g>
    <g transform="matrix(1,0,0,1,-92.4361,-187)">
        <path d="M132.734,247.981L127.697,247.981C127.697,247.981 113.305,253.738 112.585,260.214C111.865,266.69 92.436,332.174 92.436,332.174L97.473,365.276L116.183,362.397L119.781,325.698L138.491,285.4L132.734,247.981Z" style="fill:rgb(87,90,137);fill-rule:nonzero;"/>
    </g>
    <g transform="matrix(1,0,0,1,-92.4361,-187)">
        <path d="M173.574,218.863L174.319,213.67C174.493,212.459 175.201,210.868 176.379,211.197C177.38,211.477 179.563,212.334 179.928,212.076C181.296,211.106 183.367,212.801 184.805,211.94C185.408,211.579 185.801,210.807 186.502,210.755C186.972,210.785 187.415,210.986 187.747,211.319C188.681,212.131 189.782,212.729 190.972,213.071C192.185,213.401 193.488,213.046 194.366,212.146C194.518,211.91 194.724,211.713 194.966,211.57C195.25,211.488 195.554,211.502 195.829,211.61L199.505,212.611C200.599,208.646 199.908,204.395 197.615,200.981C196.124,198.957 194.316,197.186 192.261,195.737C189.985,194.005 187.635,192.376 185.213,190.85C182.645,189.033 179.73,187.765 176.65,187.125C173.55,186.654 170.079,187.496 168.129,189.952C167.212,189.288 166.522,188.357 166.155,187.286C165.735,187.668 165.495,188.211 165.495,188.78C165.495,189.407 165.787,190 166.286,190.382L163.177,188.397C162.303,189.315 164.01,190.979 163.265,192.004C163.04,192.258 162.751,192.446 162.428,192.551C160.74,193.209 159.193,194.182 157.87,195.42C156.194,197.329 154.968,199.589 154.28,202.033C152.427,207.348 151.08,213.444 153.713,218.419C154.011,218.983 157.95,228.292 158.475,228.655C160.249,229.882 159.094,226.913 160.365,228.655C161.362,230.022 161.175,224.792 162.657,225.94C163.841,226.787 165.421,226.858 166.677,226.12C167.291,225.694 167.093,223.329 166.761,221.157C166.742,221.029 166.732,220.899 166.732,220.77C166.732,219.366 167.887,218.211 169.291,218.211C169.487,218.211 169.683,218.233 169.875,218.278C171.72,218.712 173.543,219.083 173.574,218.863Z" style="fill:rgb(47,46,65);fill-rule:nonzero;"/>
    </g>
    <path d="M117.655,134.02L125.57,199.504L120.533,199.504L117.655,134.02Z" style="fill-opacity:0.2;fill-rule:nonzero;"/>
    <path d="M34.181,108.834L30.179,134.02L37.779,108.834L34.181,108.834Z" style="fill-opacity:0.2;fill-rule:nonzero;"/>
</svg>
